X:1962
T:Boyers Maggot. JB.36
T:Byer's Maggott,aka. JB.36
M:4/4
L:1/8
Q:160
S:James Biggins MS, Leeds, 1779.
R:Reel
O:England
A:Yorkshire
Z:vmp.Nick Barber & Chris Partington
K:G
G>DD>E G>AB>G|A>FE>D A>Bc>A|!B>GG>A B>cd>B|cAdB G/G/GG2:|!
|:B/c/dd2BcdB|c/d/ee2cdec|!B/c/dd2efge|cAdB G/G/GG2:|]


